hero/outline/rss.svg

<svg width="24" height="24" viewBox="0 0 24 24" fill="none" xmlns="http://www.w3.org/2000/svg">
<path d="M12.75 19.5V18.75C12.75 14.6079 9.39214 11.25 5.25 11.25H4.5M4.5 4.5H5.25C13.1201 4.5 19.5 10.8799 19.5 18.75V19.5M6 18.75C6 19.1642 5.66421 19.5 5.25 19.5C4.83579 19.5 4.5 19.1642 4.5 18.75C4.5 18.3358 4.83579 18 5.25 18C5.66421 18 6 18.3358 6 18.75Z" stroke="#0F172A" stroke-width="1.5" stroke-linecap="round" stroke-linejoin="round"/>
</svg>

<svg viewBox="0 0 24 24" xmlns="http://www.w3.org/2000/svg"><path fill="none" stroke="#000" stroke-linecap="round" stroke-linejoin="round" stroke-width="1.5" d="M12.75 19.5v-.75 0c0-4.15-3.36-7.5-7.5-7.5H4.5m0-6.75h.75c7.87 0 14.25 6.38 14.25 14.25v.75M6 18.75v0c0 .41-.34.75-.75.75 -.42 0-.75-.34-.75-.75v0c0-.42.33-.75.75-.75 .41 0 .75.33.75.75Z"/></svg>
